X:1
T:Meadow Run
C:Heifer Zephyr (original, MIT license)
M:4/4
L:1/8
Q:1/4=108
K:G
|: G2 A2 B2 d2 | e4 d2 B2 | A2 B2 c2 A2 | G6 z2 |
   B2 c2 d2 e2 | g4 e2 d2 | c2 B2 A2 B2 | G8 :|
|: d2 e2 g2 e2 | d4 B4 | c2 d2 e2 c2 | A6 z2 |
   B2 A2 G2 A2 | B4 d4 | e2 d2 B2 G2 | G8 :|
